assets/images/script/m-5-e1.svg

<svg fill="none" height="246" viewBox="0 0 266 246" width="266" xmlns="http://www.w3.org/2000/svg"><path d="m31.4877 124.591c.9284 5.57 5.8762 8.258 10.6933 10.247 24.3007 10.034 51.2877 13.584 77.378 10.619 28.128-3.196 101.12-32.57 60.15-69.2833-15.715-14.082-37.775-22.0371-57.774-27.4759-27.9663-7.6057-57.2424-10.18-85.9918-6.1636-9.5702 1.3371-23.9603 1.7286-32.74826 6.4606-1.33777.7203 4.6191-2.8665 5.42092-3.2674 14.75124-7.3756 31.16564-12.0833 47.08034-16.04 36.6255-9.1058 73.9228-16.5761 111.3888-21.16385 22.88-2.80159 46.337-5.75908 69.432-5.34666 13.805.24652 19.365 2.25621 22.204 15.96571 11.504 55.5494-5.253 111.2524-12.55 166.1174-1.478 11.109-15.319 57.75-.817 57.75" stroke="#000" stroke-linecap="round" stroke-width="5"/></svg>

<svg width="266" height="246" viewBox="0 0 266 246" fill="none" xmlns="http://www.w3.org/2000/svg">
<path d="M31.4877 124.591C32.4161 130.161 37.3639 132.849 42.181 134.838C66.4817 144.872 93.4687 148.422 119.559 145.457C147.687 142.261 220.679 112.887 179.709 76.1737C163.994 62.0917 141.934 54.1366 121.935 48.6978C93.9687 41.0921 64.6926 38.5178 35.9432 42.5342C26.373 43.8713 11.9829 44.2628 3.19494 48.9948C1.85717 49.7151 7.81404 46.1283 8.61586 45.7274C23.3671 38.3518 39.7815 33.6441 55.6962 29.6874C92.3217 20.5816 129.619 13.1113 167.085 8.52355C189.965 5.72196 213.422 2.76447 236.517 3.17689C250.322 3.42341 255.882 5.4331 258.721 19.1426C270.225 74.692 253.468 130.395 246.171 185.26C244.693 196.369 230.852 243.01 245.354 243.01" stroke="black" stroke-width="5" stroke-linecap="round"/>
</svg>
